X:43
T:A Hundred Pipers
O:england
M:6/8
L:1/8
R:March
K:A
AB|"A"c>EE ECE|"D" F2A A2 f|"A"e>cc cBA|"E"c>BB BAB|"A"c>EE ECE|"D"F2A A
2 f|
"A"ecA "E"BcB|"A"A3 A:||:cd|"A"e2 e ece|"D"f2 a a2 f|"A"e2 c cBA|"D"c2 B
"E"Bcd|
"A"e2 e ece|"D"f2 a a2 f|"A"ecA "E"BcB|"A"A3 Acd|"A"e2 e ece|"D"f2 a a2
f|
"A"e>cc cBA|"E"c>BB BAB|"A"c>EE ECE|"D"F2A A2 f|"A"ecA "E"BcB|"A"A3 A||


